on release
    // import "ARP/__ARP 06 release cb.ksp"
    if get_event_par(EVENT_ID, EVENT_PAR_0) = 1
        dec(note_held_count)
        layers.note_events [ __LEFT,  EVENT_NOTE ] := 0
        layers.note_events [ __RIGHT, EVENT_NOTE ] := 0
    end if

    if note_held_count <= 0
        SEQ.current_block [ __LEFT  ] := -1
        SEQ.current_block [ __RIGHT ] := -1
    end if
end on
